src/assets/image/footer_logo.svg

<svg xmlns:xlink="http://www.w3.org/1999/xlink" xmlns="http://www.w3.org/2000/svg" width="235" height="275" viewBox="0 0 235 275" fill="none"><g clip-path="url(#clip0_927_2547)"><path d="M48.81 58.3802C44.03 62.6702 39.6 67.1502 35.45 71.7802C13 96.8102 0.04 126.5 0 157.32C0.01 221.84 52.29 274.14 116.8 274.14C192.68 274.14 234.1 214.54 234.1 157.32C234.1 127.98 216.97 95.2002 190 90.5802C212.55 100.91 219.69 133.9 219.7 157.32C219.61 208.66 174.41 252.08 116.8 252.08C65.46 252.08 23.93 208.66 23.83 157.32C23.8 136.29 31.71 114.9 46.68 95.4802C50.52 90.5102 54.8 85.6602 59.55 80.9902C60.28 80.2702 61.1 79.5902 61.85 78.8802C66.39 74.5802 71.25 70.4002 76.56 66.4402C78.79 64.7902 81.08 63.1702 83.43 61.5902C105.68 46.6202 133.62 34.9702 165.98 28.7602L149.36 63.9302L129.89 105.12L117.07 132.25L89.7 74.7702C88.76 75.4402 87.79 76.0802 86.88 76.7602C80.68 81.3702 75.01 86.2502 69.86 91.3102C69.37 91.7902 68.91 92.2802 68.44 92.7702L117.04 195.2L209.57 0.200195C198.87 0.530195 188.42 1.3202 178.33 2.6602C137.42 8.0702 101.37 22.0998 72 40L48.81 58.3802L51.17 56.3502L48.8 58.3802H48.81Z" fill="#FAE86E"/></g><defs><clipPath id="clip0_927_2547"><rect width="234.1" height="274.14" fill="white"/></clipPath></defs></svg>

<svg xmlns="http://www.w3.org/2000/svg" width="235" height="275" fill="none"><g clip-path="url(#a)"><path d="M48.81 58.38c-4.78 4.29-9.21 8.77-13.36 13.4C13 96.81.04 126.5 0 157.32c.01 64.52 52.29 116.82 116.8 116.82 75.88 0 117.3-59.6 117.3-116.82 0-29.34-17.13-62.12-44.1-66.74 22.55 10.33 29.69 43.32 29.7 66.74-.09 51.34-45.29 94.76-102.9 94.76-51.34 0-92.87-43.42-92.97-94.76-.03-21.03 7.88-42.42 22.85-61.84 3.84-4.97 8.12-9.82 12.87-14.49.73-.72 1.55-1.4 2.3-2.11 4.54-4.3 9.4-8.48 14.71-12.44 2.23-1.65 4.52-3.27 6.87-4.85 22.25-14.97 50.19-26.62 82.55-32.83l-16.62 35.17-19.47 41.19-12.82 27.13L89.7 74.77c-.94.67-1.91 1.31-2.82 1.99-6.2 4.61-11.87 9.49-17.02 14.55-.49.48-.95.97-1.42 1.46l48.6 102.43L209.57.2c-10.7.33-21.15 1.12-31.24 2.46C137.42 8.07 101.37 22.1 72 40L48.81 58.38l2.36-2.03-2.37 2.03h.01Z" fill="#FAE86E"/></g><defs><clipPath id="a"><path fill="#fff" d="M0 0h234.1v274.14H0z"/></clipPath></defs></svg>
